X: 2
M: C
L: 1/8
K: Bb
V: 1
d/e/ |\
f>ba>b Tg>bf>d | e>dTc>B Tc>dTg2 |\
f>gfd b>fd>B | d>f (e/d/).c/.B/ Tc2B>d |
(3(fga) (3(bab) (3(gab) (3(fdB) | (3(gfe) (3(dcB) Tc>B TGA |\
V: 2 clef=bass middle=d
z |\
d2d2 B2B2 | B2B2 f2B2 |\


